X: 37464
T: Sliabh Russell
R: jig
M: 6/8
K: Adorian
|:e2A Bcd|eaf ged|edB cBA|~B3 B2d|
e2A Bcd|eaf ged|edB cBA|1 BAG ~A3:|2 BAG ABc||
|:e2a efg|a2f ged|~e3 efg|fed ~e3|
e2a efg|agf ged|edB cBA|1 BAG ABc:|2 BAG ABd||

